web/themes/custom/oh_my_pasta/images/icons/download.svg

<svg width="22" height="22" viewBox="0 0 22 22" fill="none" xmlns="http://www.w3.org/2000/svg">
<path d="M14.6329 5.36276H19.4291L13.9887 0V4.71823C13.9887 5.07362 14.2777 5.36276 14.6329 5.36276Z" fill="#CE491F"/>
<path d="M2.57812 21.3555C2.57812 21.7114 2.8667 22 3.22266 22H18.7846C19.1405 22 19.4291 21.7114 19.4291 21.3555V19.8086H2.57812V21.3555Z" fill="#CE491F"/>
<path d="M19.4291 6.65182H14.6329C13.5669 6.65182 12.6997 5.78441 12.6997 4.71823V0H3.22266C2.8667 0 2.57812 0.288578 2.57812 0.644531V8.29297H19.4291V6.65182Z" fill="#CE491F"/>
<path d="M20.7109 9.53906H1.28906C0.577113 9.53906 0 10.1162 0 10.8281V17.2734C0 17.9853 0.577156 18.5625 1.28906 18.5625H20.7109C21.4228 18.5625 22 17.9853 22 17.2734V10.8281C22 10.1162 21.4228 9.53906 20.7109 9.53906Z" fill="#CE491F"/>
</svg>

<svg width="22" height="22" fill="none" xmlns="http://www.w3.org/2000/svg"><path d="M14.633 5.363h4.796L13.99 0v4.718c0 .356.289.645.644.645zM2.578 21.355c0 .356.289.645.645.645h15.562a.645.645 0 00.644-.645V19.81H2.58v1.546z" fill="#CE491F"/><path d="M19.43 6.652h-4.797A1.936 1.936 0 0112.7 4.718V0H3.223a.645.645 0 00-.645.645v7.648H19.43V6.652zm1.28 2.888H1.29c-.713 0-1.29.576-1.29 1.288v6.445c0 .712.577 1.29 1.29 1.29h19.42a1.29 1.29 0 001.29-1.29v-6.445a1.29 1.29 0 00-1.29-1.289z" fill="#CE491F"/></svg>
